public/svg/footer-fb.svg

<svg width="18" height="18" viewBox="0 0 18 18" fill="none" xmlns="http://www.w3.org/2000/svg">
<path d="M9 1.125C4.64625 1.125 1.125 4.66875 1.125 9.045C1.125 12.9937 4.005 16.2788 7.77375 16.875V11.34H5.77125V9.045H7.77375V7.30125C7.77375 5.31 8.955 4.21875 10.7438 4.21875C11.61 4.21875 12.51 4.37625 12.51 4.37625V6.3225H11.52C10.5412 6.3225 10.2375 6.93 10.2375 7.56V9.045H12.42L12.0712 11.34H10.2375V16.875C14.0063 16.2788 16.8863 13.005 16.8863 9.045C16.8863 4.66875 13.365 1.125 9.01125 1.125H9Z" fill="#2E6092"/>
</svg>

<svg xmlns="http://www.w3.org/2000/svg" width="18" height="18" fill="none"><path fill="#2E6092" d="M9 1.125c-4.354 0-7.875 3.544-7.875 7.92 0 3.949 2.88 7.234 6.649 7.83V11.34H5.77V9.045h2.003V7.301c0-1.991 1.181-3.082 2.97-3.082.866 0 1.766.157 1.766.157v1.946h-.99c-.979 0-1.282.608-1.282 1.238v1.485h2.182l-.349 2.295h-1.833v5.535c3.768-.596 6.648-3.87 6.648-7.83 0-4.376-3.521-7.92-7.875-7.92z"/></svg>
